X:0
T:The Lichtbob's Lassie
M:2/4
L:1/8
Q:1/4=72
K:F
FF/F/ GA/A/|F3   F|A>A AB|A G3 |
c>c   cc   |c F2 F|G>A BA|A G3|]
